X: 4
T: Morrison's
R: jig
M: 6/8
L: 1/8
K: Edor
|:E>FE BEB|EBE AFD|E>FE BEB|dcB AFD|
E>FE BEB|EBE AFD|GFG E2 B/c/|1dcB AFD:|2dcB ABc ||
|:B2!trill!e f2 !trill!e|B2 !trill!e dBA|B2!trill!e f2 !trill!e|eag fed |
B2!trill!e f2 !trill!e|B2 !trill!e dBA | cBc A3  |1B3 ABc :|2B3 AFD|]


Tune 71	Setting 71

